public/images/logo.svg

<svg width="86" height="38" viewBox="0 0 86 38" fill="none" xmlns="http://www.w3.org/2000/svg">
<g clip-path="url(#clip0_331_344)">
<path d="M44.3092 14.8901C42.8139 14.7044 41.7674 14.611 41.1698 14.6102C40.5722 14.6102 40.1871 14.6628 40.0118 14.7681C39.9247 14.8199 39.854 14.8937 39.8072 14.9815C39.7604 15.0693 39.7393 15.1678 39.7462 15.2664C39.7424 15.372 39.7751 15.4757 39.839 15.5613C39.903 15.6469 39.9946 15.7094 40.0994 15.739C40.3349 15.8246 40.9383 15.9531 41.9095 16.1243C42.8807 16.2955 43.5713 16.5725 43.9812 16.9552C44.3911 17.3405 44.596 17.9646 44.596 18.8276C44.596 20.7181 43.3836 21.6633 40.9586 21.6633C39.9856 21.6447 39.0165 21.5389 38.0636 21.3473L37.4846 21.242L37.5576 19.2823C39.053 19.4698 40.0932 19.5631 40.6784 19.5622C41.2641 19.5622 41.6612 19.507 41.8736 19.3966C41.9707 19.3518 42.0522 19.2808 42.1083 19.1921C42.1644 19.1034 42.1927 19.0009 42.1897 18.897C42.1922 18.7922 42.1615 18.6891 42.1017 18.6016C42.0419 18.5141 41.9558 18.4465 41.855 18.4077C41.6319 18.3024 41.0529 18.174 40.118 18.0224C39.1831 17.8709 38.4863 17.614 38.0277 17.2519C37.5691 16.8897 37.3398 16.245 37.3398 15.3178C37.3398 14.3906 37.6679 13.6915 38.3239 13.2206C38.9746 12.748 39.813 12.5117 40.8391 12.5117C41.5474 12.5117 42.5186 12.6226 43.7528 12.8443L44.3504 12.9484L44.3092 14.8901Z" fill="#3C57FF"/>
<path d="M48.7804 21.4555H46.3555V9.20508H48.7804V16.1747L49.7034 16.0167L51.4948 12.7072H54.2093L51.856 16.854L54.3354 21.4568H51.6051L49.7764 18.0445L48.7817 18.2012L48.7804 21.4555Z" fill="#3C57FF"/>
<path d="M55.7832 21.4555V9.20508H58.2068V21.4555H55.7832Z" fill="#3C57FF"/>
<path d="M67.4912 15.4352V19.076C67.4942 19.2792 67.5437 19.4792 67.636 19.6616C67.7077 19.7734 67.8591 19.8517 68.0875 19.8979L68.0158 21.6664C67.5206 21.6755 67.0259 21.6324 66.5404 21.5379C66.1416 21.4422 65.7643 21.2763 65.4275 21.0486C64.6022 21.4463 63.6936 21.6559 62.7715 21.6612C60.9017 21.6612 59.9668 20.7045 59.9668 18.7909C59.9668 17.8577 60.2262 17.1955 60.745 16.8042C61.2638 16.4129 62.0606 16.1826 63.1354 16.1133L65.0716 15.9733V15.4301C65.0716 15.0696 64.9871 14.8218 64.818 14.6865C64.6493 14.5581 64.3771 14.4861 64.0039 14.4861L60.5963 14.6338L60.5246 13.0054C61.7232 12.6777 62.9615 12.5049 64.2071 12.4917C65.3704 12.4917 66.2088 12.725 66.7223 13.1916C67.2358 13.6582 67.4921 14.4061 67.4912 15.4352ZM63.4196 17.7468C62.7432 17.8059 62.4054 18.1561 62.4063 18.7973C62.4072 19.4386 62.702 19.7588 63.2908 19.758C63.7987 19.7516 64.3036 19.6813 64.7927 19.5486L65.065 19.478V17.6056L63.4196 17.7468Z" fill="#3C57FF"/>
<path d="M77.5004 9.20508V21.4555H75.0914V21.0882C74.2468 21.4735 73.5168 21.6661 72.9015 21.6661C71.5868 21.6661 70.6701 21.2984 70.1513 20.563C69.6325 19.8275 69.373 18.6644 69.373 17.0737C69.373 15.4812 69.6829 14.3207 70.3026 13.5921C70.9224 12.8635 71.8608 12.4979 73.118 12.4953C73.6585 12.5116 74.1967 12.5701 74.7275 12.67L75.0715 12.7406V9.20508H77.5004ZM74.8218 19.3506L75.0755 19.298V14.7004C74.4911 14.5913 73.8978 14.5328 73.3026 14.5257C72.3287 14.5257 71.8418 15.3656 71.8418 17.0454C71.8418 17.9564 71.9503 18.6041 72.1672 18.9885C72.3841 19.3729 72.7431 19.5651 73.2442 19.5651C73.7762 19.5603 74.3055 19.4899 74.8192 19.3558L74.8218 19.3506Z" fill="#3C57FF"/>
<path d="M42.1922 25.9351C43.4592 25.9351 44.3852 26.2707 44.9704 26.9419C45.5556 27.6132 45.8482 28.8118 45.8482 30.5378C45.8482 32.2656 45.5105 33.4586 44.835 34.117C44.1595 34.7754 42.9952 35.105 41.3423 35.1059C40.8226 35.1059 39.8753 35.0477 38.5004 34.9312L37.8125 34.8606V22.6436H40.2374V26.4051C41.0103 26.0918 41.6619 25.9351 42.1922 25.9351ZM41.3423 32.9984C42.1497 32.9984 42.6925 32.8088 42.9704 32.4295C43.2484 32.0502 43.387 31.3704 43.3861 30.3901C43.3861 28.8156 42.8797 28.0284 41.8669 28.0284C41.4022 28.0258 40.9393 28.0846 40.4911 28.2031L40.2374 28.2557V32.9278C40.7925 32.9749 41.1608 32.9984 41.3423 32.9984Z" fill="#3C57FF"/>
<path d="M48.1522 27.1321C48.7905 26.3333 49.8582 25.9335 51.3553 25.9326C52.8524 25.9318 53.9201 26.3316 54.5585 27.1321C55.1968 27.9309 55.5164 29.0538 55.5173 30.5007C55.5173 33.5683 54.13 35.1026 51.3553 35.1034C48.5807 35.1043 47.1934 33.57 47.1934 30.5007C47.1898 29.0546 47.5095 27.9318 48.1522 27.1321ZM50.0194 32.4848C50.2677 32.9048 50.7099 33.1141 51.3474 33.1141C51.9848 33.1141 52.4297 32.9048 52.6754 32.4848C52.921 32.0649 53.0459 31.4061 53.0459 30.5071C53.0459 29.6081 52.9224 28.9557 52.6754 28.5473C52.4284 28.139 51.9835 27.9348 51.3474 27.9348C50.7113 27.9348 50.2651 28.139 50.0194 28.5473C49.7737 28.9557 49.6489 29.6094 49.6489 30.5071C49.6489 31.4048 49.7724 32.0585 50.0194 32.4848Z" fill="#3C57FF"/>
<path d="M62.2977 28.1377H60.072V31.7259C60.072 32.0752 60.0813 32.3244 60.0986 32.4695C60.1164 32.6139 60.187 32.7474 60.2978 32.8458C60.4477 32.9618 60.6376 33.0183 60.829 33.0037L62.2048 32.9678L62.3137 34.8415C61.7089 34.9871 61.0904 35.0732 60.4678 35.0984C59.3815 35.0984 58.6395 34.8621 58.242 34.3894C57.8445 33.9168 57.6453 33.0448 57.6444 31.7734V28.1377H56.582V26.1433H57.6444V23.7109H60.0694V26.1433H62.2951L62.2977 28.1377Z" fill="#3C57FF"/>
<path d="M63.7637 34.8928V31.9878H66.3692V34.8928H63.7637Z" fill="#3C57FF"/>
<path d="M68.5039 34.8927V26.1431H70.9102V27.0703C71.8021 26.5358 72.7816 26.1519 73.8066 25.9351V28.2981C72.8327 28.4976 71.9943 28.7018 71.2914 28.9107L70.9288 29.0327V34.8952L68.5039 34.8927Z" fill="#3C57FF"/>
<path d="M80.5739 26.1431H82.9989V34.8926H80.5925V34.4033C79.724 34.8691 78.9715 35.1024 78.3349 35.1033C77.0795 35.1033 76.2354 34.7676 75.8024 34.0964C75.3695 33.4252 75.1522 32.3023 75.1504 30.7278V26.1431H77.5753V30.7664C77.5753 31.6302 77.6479 32.2197 77.7931 32.5348C77.9383 32.8498 78.288 33.0074 78.8422 33.0074C79.3538 33.0104 79.862 32.9274 80.3442 32.7621L80.5793 32.6914L80.5739 26.1431Z" fill="#3C57FF"/>
<path d="M12.9916 31.0388H12.9757C12.7865 31.07 12.5929 31.0648 12.4059 31.0235C12.2188 30.9823 12.042 30.9058 11.8855 30.7985C11.729 30.6912 11.5959 30.5551 11.4938 30.398C11.3917 30.2409 11.3226 30.0659 11.2904 29.883L7.4658 7.79397C7.35281 7.04973 6.97246 6.36773 6.39145 5.8676C5.90806 5.4682 5.34765 5.29611 4.81512 5.38215H4.78856C3.68897 5.57479 2.70891 6.46092 2.96123 8.02513L3.2348 9.17197C3.27787 9.35301 3.28365 9.54049 3.25181 9.72369C3.21996 9.9069 3.15111 10.0822 3.04919 10.2397C2.94727 10.3972 2.81427 10.5337 2.65779 10.6415C2.50132 10.7492 2.32442 10.8262 2.13721 10.8678C1.94999 10.9095 1.75613 10.9151 1.56668 10.8843C1.37723 10.8535 1.19592 10.7869 1.03308 10.6883C0.870238 10.5898 0.729068 10.4611 0.617628 10.3098C0.506188 10.1585 0.426659 9.98743 0.383584 9.80638L0.0900958 8.57222L0.0834558 8.53113C-0.4172 5.64414 1.37958 3.10133 4.26931 2.60047L4.3304 2.5902C5.72878 2.36289 7.13513 2.76101 8.28916 3.71777C9.39526 4.64763 10.1277 5.92425 10.3582 7.32393L14.1828 29.413C14.2468 29.7812 14.1573 30.1589 13.9341 30.4636C13.7109 30.7683 13.372 30.9751 12.9916 31.0388Z" fill="#3C57FF"/>
<path d="M30.5658 34.8415H30.5539L19.4438 36.678C19.0613 36.7412 18.6685 36.6548 18.3519 36.438C18.0352 36.2211 17.8206 35.8914 17.7553 35.5215C17.6899 35.1516 17.7792 34.7718 18.0035 34.4656C18.2278 34.1593 18.5686 33.9518 18.9511 33.8886L30.0612 32.0534C30.4433 31.9887 30.8364 32.0735 31.1539 32.289C31.4715 32.5046 31.6875 32.8333 31.7544 33.2028C31.8213 33.5724 31.7337 33.9525 31.5108 34.2596C31.2879 34.5667 30.948 34.7755 30.5658 34.8403V34.8415Z" fill="#3C57FF"/>
<path d="M13.4375 38.1656C13.2654 38.1655 13.0936 38.1517 12.9235 38.1244C12.5064 38.0598 12.1062 37.9084 11.7472 37.6794C11.3881 37.4504 11.0777 37.1485 10.8346 36.792C10.6027 36.4544 10.4394 36.0717 10.3545 35.667C10.2696 35.2624 10.2649 34.8441 10.3406 34.4375C10.6553 32.7162 12.3113 31.5459 14.0298 31.8275C14.4469 31.8923 14.847 32.0436 15.2062 32.2723C15.5654 32.5011 15.8762 32.8025 16.12 33.1586C16.3513 33.4967 16.5142 33.8796 16.5989 34.2845C16.6835 34.6893 16.6882 35.1077 16.6127 35.5144C16.3338 37.0667 14.9607 38.1656 13.4375 38.1656ZM13.5118 33.4086C13.1336 33.4017 12.7647 33.5306 12.4679 33.7733C12.1711 34.0159 11.9646 34.3574 11.8837 34.7397C11.8477 34.9328 11.85 35.1315 11.8904 35.3237C11.9308 35.5159 12.0085 35.6976 12.1188 35.8579C12.2419 36.0352 12.3985 36.1851 12.579 36.2984C12.7595 36.4117 12.9602 36.4861 13.1692 36.5172C14.059 36.6628 14.9115 36.0776 15.0696 35.2095C15.1056 35.0163 15.1033 34.8177 15.0629 34.6254C15.0225 34.4332 14.9448 34.2515 14.8345 34.0913C14.7115 33.9137 14.555 33.7636 14.3745 33.65C14.194 33.5365 13.9932 33.4618 13.7841 33.4306C13.694 33.4158 13.603 33.4085 13.5118 33.4086Z" fill="#3C57FF"/>
<path d="M27.5321 8.14308L26.3369 1.42133C26.2637 1.04637 26.0397 0.714783 25.7141 0.499306C25.3885 0.283829 24.9877 0.202057 24.5998 0.271928L13.0356 2.18289H13.0223C12.6387 2.24729 12.2951 2.45133 12.0622 2.75309C11.9448 2.90446 11.8607 3.07745 11.815 3.26143C11.7693 3.4454 11.7631 3.63647 11.7966 3.82287L12.9918 10.5446C13.0653 10.9191 13.2891 11.2503 13.6144 11.4657C13.9396 11.6811 14.3398 11.7632 14.7275 11.694L26.2944 9.78563H26.3076C26.7039 9.71897 27.0567 9.50335 27.289 9.18588C27.3992 9.03642 27.4774 8.8672 27.5192 8.68815C27.5609 8.5091 27.5653 8.32379 27.5321 8.14308Z" fill="#3C57FF"/>
<path d="M16.4282 22.0528L27.9924 20.1419H28.0057C28.4018 20.0756 28.7546 19.8605 28.9871 19.5434C29.0975 19.3942 29.1762 19.2254 29.2186 19.0466C29.261 18.8678 29.2663 18.6826 29.2341 18.5019L28.0389 11.7801C27.9669 11.4044 27.7437 11.0717 27.4183 10.855C27.0929 10.6383 26.6918 10.5553 26.3032 10.6243L14.739 12.5391H14.7257C14.3299 12.6059 13.9772 12.8209 13.7443 13.1376C13.6339 13.2867 13.5552 13.4556 13.5128 13.6344C13.4704 13.8132 13.4651 13.9983 13.4973 14.1791L14.6925 20.9008C14.7651 21.276 14.9886 21.608 15.314 21.824C15.6394 22.04 16.0401 22.1222 16.4282 22.0528Z" fill="#3C57FF"/>
<path d="M30.9489 28.9157L29.7537 22.1926C29.6799 21.8189 29.4563 21.4885 29.1317 21.2734C28.8071 21.0584 28.4078 20.9761 28.0207 21.0445L16.4525 22.9555H16.4392C16.2432 22.9881 16.0558 23.0577 15.8876 23.1604C15.7195 23.2631 15.5739 23.3968 15.4592 23.5539C15.3488 23.7031 15.2701 23.872 15.2277 24.0507C15.1853 24.2295 15.18 24.4147 15.2122 24.5955L16.4074 31.3172C16.4812 31.6918 16.7053 32.023 17.0307 32.2384C17.3562 32.4537 17.7566 32.5358 18.1444 32.4666L29.7073 30.5582H29.7219C30.1174 30.4916 30.4697 30.2764 30.7019 29.9598C30.8127 29.8103 30.8916 29.641 30.934 29.4617C30.9764 29.2825 30.9815 29.0968 30.9489 28.9157Z" fill="#3C57FF"/>
</g>
<defs>
<clipPath id="clip0_331_344">
<rect width="86" height="38" fill="white"/>
</clipPath>
</defs>
</svg>

<svg width="86" height="38" fill="none" xmlns="http://www.w3.org/2000/svg"><g clip-path="url(#a)" fill="#3C57FF"><path d="M44.31 14.89c-1.496-.186-2.543-.279-3.14-.28-.598 0-.983.053-1.158.158a.55.55 0 0 0-.205.213.527.527 0 0 0-.06.285.465.465 0 0 0 .092.295.491.491 0 0 0 .26.178c.236.086.84.214 1.81.385.972.172 1.662.449 2.072.831.41.386.615 1.01.615 1.873 0 1.89-1.212 2.835-3.637 2.835a16.265 16.265 0 0 1-2.895-.316l-.58-.105.074-1.96c1.495.188 2.535.281 3.12.28.586 0 .983-.055 1.196-.165a.55.55 0 0 0 .234-.205.523.523 0 0 0 .082-.295.502.502 0 0 0-.088-.295.528.528 0 0 0-.247-.194c-.223-.106-.802-.234-1.737-.386-.935-.151-1.632-.408-2.09-.77-.459-.362-.688-1.007-.688-1.934s.328-1.627.984-2.097c.65-.473 1.489-.71 2.515-.71.708 0 1.68.112 2.914.333l.597.104-.04 1.942zM48.78 21.456h-2.425V9.206h2.425v6.969l.923-.158 1.792-3.31h2.714l-2.353 4.147 2.48 4.603h-2.73l-1.83-3.413-.994.157-.002 3.255zM55.783 21.456V9.206h2.424v12.25h-2.424zM67.491 15.435v3.641c.003.203.053.403.145.586.072.111.223.19.452.236l-.072 1.768c-.495.01-.99-.034-1.476-.128a3.407 3.407 0 0 1-1.113-.49 6.204 6.204 0 0 1-2.656.613c-1.87 0-2.804-.957-2.804-2.87 0-.933.26-1.596.778-1.987.519-.391 1.316-.621 2.39-.69l1.937-.14v-.544c0-.36-.085-.608-.254-.743-.169-.129-.44-.2-.814-.2l-3.408.147-.071-1.629c1.198-.327 2.437-.5 3.682-.513 1.163 0 2.002.233 2.515.7.514.466.77 1.214.77 2.243zm-4.071 2.312c-.677.059-1.015.41-1.014 1.05.001.642.296.962.885.961a6.027 6.027 0 0 0 1.502-.21l.272-.07v-1.872l-1.645.14zM77.5 9.205v12.25h-2.409v-.367c-.844.386-1.574.578-2.19.578-1.314 0-2.23-.368-2.75-1.103-.519-.735-.778-1.899-.778-3.49 0-1.592.31-2.752.93-3.48.62-.73 1.558-1.095 2.815-1.098.54.017 1.079.075 1.61.175l.344.07V9.206H77.5zm-2.678 10.146.254-.053V14.7a10.333 10.333 0 0 0-1.773-.174c-.974 0-1.461.84-1.461 2.52 0 .91.108 1.558.325 1.942.217.385.576.577 1.077.577a6.468 6.468 0 0 0 1.575-.21l.003-.004zM42.192 25.935c1.267 0 2.193.336 2.778 1.007.586.671.878 1.87.878 3.596 0 1.728-.337 2.92-1.013 3.579-.675.658-1.84.988-3.493.989-.52 0-1.467-.058-2.842-.175l-.688-.07V22.644h2.425v3.761c.773-.313 1.425-.47 1.955-.47zm-.85 7.063c.808 0 1.35-.19 1.628-.569.278-.379.417-1.059.416-2.039 0-1.574-.506-2.362-1.52-2.362a5.269 5.269 0 0 0-1.375.175l-.254.053v4.672c.555.047.924.07 1.105.07zM48.152 27.132c.639-.799 1.706-1.199 3.203-1.2 1.497 0 2.565.4 3.204 1.2.638.799.957 1.922.958 3.369 0 3.067-1.387 4.602-4.162 4.602-2.774.001-4.162-1.533-4.162-4.602-.003-1.446.317-2.57.96-3.369zm1.867 5.353c.249.42.69.63 1.328.63.638 0 1.083-.21 1.328-.63.246-.42.37-1.079.37-1.978s-.123-1.551-.37-1.96c-.247-.408-.691-.612-1.328-.612-.636 0-1.082.204-1.328.612-.245.409-.37 1.062-.37 1.96 0 .898.123 1.552.37 1.978zM62.298 28.138h-2.226v3.588c0 .35.01.598.027.743a.602.602 0 0 0 .199.377c.15.116.34.172.531.158l1.376-.036.109 1.873a9.536 9.536 0 0 1-1.846.257c-1.087 0-1.829-.236-2.226-.709-.398-.472-.597-1.344-.598-2.616v-3.635h-1.062v-1.995h1.062v-2.432h2.425v2.432h2.226l.003 1.995zM63.764 34.893v-2.905h2.605v2.905h-2.605zM68.504 34.893v-8.75h2.406v.927a9.432 9.432 0 0 1 2.897-1.135v2.363c-.974.2-1.813.404-2.516.613l-.362.122v5.862l-2.425-.002zM80.574 26.143h2.425v8.75h-2.406v-.49c-.869.466-1.621.7-2.258.7-1.255 0-2.1-.335-2.533-1.007-.433-.67-.65-1.794-.652-3.368v-4.585h2.425v4.623c0 .864.073 1.454.218 1.769.145.315.495.472 1.05.472.51.003 1.019-.08 1.501-.245l.235-.07-.005-6.549zM12.992 31.039h-.016a1.507 1.507 0 0 1-1.09-.24 1.433 1.433 0 0 1-.392-.401 1.386 1.386 0 0 1-.204-.515L7.466 7.794A3.172 3.172 0 0 0 6.39 5.868c-.483-.4-1.043-.572-1.576-.486H4.79c-1.1.193-2.08 1.079-1.828 2.643l.274 1.147a1.37 1.37 0 0 1-.186 1.068 1.436 1.436 0 0 1-.391.402 1.487 1.487 0 0 1-1.091.242c-.19-.03-.371-.097-.534-.196a1.443 1.443 0 0 1-.415-.378 1.392 1.392 0 0 1-.234-.504L.09 8.572l-.007-.04C-.417 5.643 1.38 3.101 4.27 2.6l.061-.01c1.399-.227 2.805.171 3.96 1.128a5.987 5.987 0 0 1 2.068 3.606l3.825 22.089c.064.368-.026.746-.249 1.05a1.467 1.467 0 0 1-.942.576zM30.566 34.842h-.012l-11.11 1.836a1.502 1.502 0 0 1-1.092-.24 1.41 1.41 0 0 1-.597-.916c-.065-.37.024-.75.248-1.056a1.47 1.47 0 0 1 .948-.577l11.11-1.836c.382-.064.775.02 1.093.236.317.216.534.544.6.914.067.37-.02.75-.243 1.057a1.47 1.47 0 0 1-.945.58v.002zM13.438 38.166c-.173 0-.344-.014-.514-.042a3.057 3.057 0 0 1-1.177-.445 3.167 3.167 0 0 1-1.406-3.242c.314-1.72 1.97-2.891 3.689-2.61.417.065.817.217 1.176.445.36.23.67.53.914.887.231.338.394.72.479 1.126.084.404.09.823.014 1.23a3.24 3.24 0 0 1-3.175 2.65zm.074-4.757a1.602 1.602 0 0 0-1.044.364 1.702 1.702 0 0 0-.584.967 1.502 1.502 0 0 0 .695 1.558c.18.114.381.188.59.22.89.145 1.742-.44 1.9-1.309a1.503 1.503 0 0 0-.695-1.559 1.668 1.668 0 0 0-.863-.241zM27.532 8.143l-1.195-6.722A1.439 1.439 0 0 0 25.714.5 1.531 1.531 0 0 0 24.6.272l-11.564 1.91h-.014a1.532 1.532 0 0 0-.96.571 1.342 1.342 0 0 0-.266 1.07l1.196 6.722c.073.374.297.705.622.92.326.216.726.298 1.113.229l11.567-1.908h.014c.396-.067.749-.283.981-.6a1.36 1.36 0 0 0 .243-1.043zM16.428 22.053l11.564-1.911h.014c.396-.066.749-.282.981-.599a1.365 1.365 0 0 0 .247-1.041L28.04 11.78a1.44 1.44 0 0 0-.62-.925 1.532 1.532 0 0 0-1.116-.23L14.74 12.538h-.013a1.533 1.533 0 0 0-.982.599 1.364 1.364 0 0 0-.247 1.041l1.196 6.722c.072.375.296.707.621.923a1.53 1.53 0 0 0 1.114.229zM30.949 28.916l-1.195-6.723a1.44 1.44 0 0 0-.622-.92 1.532 1.532 0 0 0-1.111-.229l-11.569 1.912h-.013a1.545 1.545 0 0 0-.551.204 1.495 1.495 0 0 0-.429.394 1.365 1.365 0 0 0-.247 1.042l1.195 6.721c.074.375.298.706.624.921.325.216.726.298 1.113.229l11.563-1.909h.015c.395-.066.748-.282.98-.598a1.364 1.364 0 0 0 .247-1.044z"/></g><defs><clipPath id="a"><path fill="#fff" d="M0 0h86v38H0z"/></clipPath></defs></svg>
